assets/img/Airdrops/noun_Ray_1695445.svg

<svg width="35" height="69" viewBox="0 0 35 69" fill="none" xmlns="http://www.w3.org/2000/svg">
<path d="M9.45462 69C9.267 69 9.07938 69 8.89176 68.8135C8.14128 68.627 7.57841 67.6946 7.57841 66.9486L10.9556 41.5865H1.94981C1.38695 41.5865 0.824085 41.4 0.448845 40.8405C0.0736041 40.4676 -0.114016 39.9081 0.0736044 39.3486L8.3289 1.49189C8.51652 0.55946 9.267 0 10.2051 0L33.2824 0.55946C33.8453 0.55946 34.5957 0.932433 34.7834 1.49189C34.971 2.05135 35.1586 2.7973 34.7834 3.35676L22.588 28.5324H32.7195C33.47 28.5324 34.0329 28.9054 34.4081 29.4649C34.7834 30.0243 34.7834 30.7703 34.4081 31.3297L11.1432 68.0676C10.768 68.627 10.2051 69 9.45462 69ZM4.38887 37.8568H13.207C13.7699 37.8568 14.3327 38.0432 14.708 38.4162C15.0832 38.7892 15.2708 39.3487 15.0832 39.9081L12.6442 58.9297L29.53 32.2622H19.7737C19.2109 32.2622 18.4604 31.8892 18.2728 31.3297C18.0852 30.7703 17.8975 30.0243 18.0852 29.4649L30.2805 4.28919L11.8937 3.91622L4.38887 37.8568Z" fill="#5e2ced"/>
</svg>

<?xml version="1.0" encoding="utf-8"?>
<!-- Generator: Adobe Illustrator 24.0.1, SVG Export Plug-In . SVG Version: 6.00 Build 0)  -->
<svg version="1.1" id="Слой_1" xmlns="http://www.w3.org/2000/svg" xmlns:xlink="http://www.w3.org/1999/xlink" x="0px" y="0px"
	 viewBox="0 0 35 69" style="enable-background:new 0 0 35 69;" xml:space="preserve">
<style type="text/css">
	.st0{fill:#FFFFFF;}
</style>
<path class="st0" d="M9.5,69c-0.2,0-0.4,0-0.6-0.2c-0.8-0.2-1.3-1.1-1.3-1.9L11,41.6h-9c-0.6,0-1.1-0.2-1.5-0.7
	c-0.4-0.4-0.6-0.9-0.4-1.5L8.3,1.5C8.5,0.6,9.3,0,10.2,0l23.1,0.6c0.6,0,1.3,0.4,1.5,0.9c0.2,0.6,0.4,1.3,0,1.9L22.6,28.5h10.1
	c0.8,0,1.3,0.4,1.7,0.9c0.4,0.6,0.4,1.3,0,1.9L11.1,68.1C10.8,68.6,10.2,69,9.5,69z M4.4,37.9h8.8c0.6,0,1.1,0.2,1.5,0.6
	c0.4,0.4,0.6,0.9,0.4,1.5l-2.4,19l16.9-26.7h-9.8c-0.6,0-1.3-0.4-1.5-0.9c-0.2-0.6-0.4-1.3-0.2-1.9L30.3,4.3L11.9,3.9L4.4,37.9z"/>
</svg>
